X:1
T:Title
%%score { ( 1 3 ) | ( 2 4 5 ) }
L:1/8
M:3/4
K:A
V:1 treble nm="Grand Piano"
V:3 treble 
V:2 bass 
V:4 bass 
V:5 bass 
V:1
 z2 z2[Q:1/4=100] [CA]>[DB] | [Ec]3 [DB] [CA]>[CE] | [DF] [FA]3 [DF]>[DF] | [CE]4 [Ec]>[EA] | %4
[M:2/4] B4 |[M:1/4] [EA]>[EB] |[M:3/4] [Ec]3 [DB] [CA]>[CE] | [DF] [FA]3 [FA]>[^EB] | %8
 c2 A2 [DEB]2 |[M:2/4] [CEA]4 |[M:1/4] [Ec]>[Ec] |[M:3/4] [Fd]3 [Fd] [Fc]>[FB] | [Ec]4 [Ec]>[Ec] | %13
 [^DB]3 [DF] [DB]>[B,FA] |[M:2/4] [FA]2 z2 |[M:1/4] [A,EA]>[EB] |[M:3/4] [Ec]3 [DB] [CA]>[CE] | %17
 [DF] [FA]3 [FA]>[^EB] | c2 A2 [DEB]2 |[M:6/4] .[CEA]6 z6 |] %20
V:2
 z2 z2 [A,,E,]>[A,,E,] | [A,,A,]3 [A,,E,] [A,,E,]>[A,,A,] | [D,A,] [D,A,]3 [D,A,]>[D,A,] | %3
 [A,,A,]4 [A,,A,]>[C,A,] |[M:2/4] [E,G,E]4 |[M:1/4] [C,A,]>[B,,G,] | %6
[M:3/4] [A,,A,]3 [A,,E,] [A,,E,]>[A,,A,] | [D,A,] [D,A,]3 [D,A,]>[D,A,] | [E,E]2- [E,CE]2 E,2 | %9
[M:2/4] A,,4 |[M:1/4] A,>A, |[M:3/4] [D,A,]3 [D,A,] [D,A,]>[D,A,] | [A,,A,]4 [A,,A,]>[A,,A,] | %13
 [B,,F,]3 [B,,B,] [B,,F,]>B,, |[M:2/4] z2 E2 |[M:1/4] C,>[B,,G,] | %16
[M:3/4] [A,,A,]3 [A,,E,] [A,,E,]>[A,,A,] | [D,A,] [D,A,]3 [D,A,]>[D,A,] | [E,E]2- [E,CE]2 E,2 | %19
[M:6/4] .A,,6 z6 |] %20
V:3
 x6 | x6 | x6 | x6 |[M:2/4] z2 z D, |[M:1/4] x2 |[M:3/4] x6 | x6 | x6 |[M:2/4] x4 |[M:1/4] x2 | %11
[M:3/4] x6 | x6 | x6 |[M:2/4] B,2- [B,G]2 |[M:1/4] x2 |[M:3/4] x6 | x6 | x6 |[M:6/4] x12 |] %20
V:4
 x6 | x6 | x6 | x6 |[M:2/4] x4 |[M:1/4] x2 |[M:3/4] x6 | x6 | A,2 z2 z2 |[M:2/4] x4 |[M:1/4] x2 | %11
[M:3/4] x6 | x6 | x6 |[M:2/4] E,4 |[M:1/4] x2 |[M:3/4] x6 | x6 | A,2 z2 z2 |[M:6/4] x12 |] %20
V:5
 x6 | x6 | x6 | x6 |[M:2/4] x4 |[M:1/4] x2 |[M:3/4] x6 | x6 | x6 |[M:2/4] x4 |[M:1/4] x2 | %11
[M:3/4] x6 | x6 | x6 |[M:2/4] z2 z D, |[M:1/4] x2 |[M:3/4] x6 | x6 | x6 |[M:6/4] x12 |] %20

